svg/u26c8.svg

<svg viewBox="0 0 128 128" xmlns="http://www.w3.org/2000/svg">
  <path d="M78,67.82l-22.83,3.97c0,0-7.6,19.36-8.07,20.67s-0.45,3.38,1.62,3.38c2.63,0,15.98-0.07,15.98-0.07 s-3.24,15.63-3.43,17.03s1.31,2.63,2.63,1.22s19.51-24.79,20.3-25.93c1.41-2.04,0.05-3.92-1.55-4.01 c-1.6-0.09-12.32,0.14-12.32,0.14L78,67.82z" fill="#FECA18"/>
  <path d="M71.92,70.54c0,0-5.09,11.26-5.28,11.9c-0.56,1.9,1.9,2.67,2.6,1.13c0.7-1.55,6.76-14.08,6.76-14.08 L71.92,70.54z" fill="#FDB900"/>
  <path d="M49.99,92.17c1.34-0.04,13.1-0.07,14.08-0.14c1.83-0.14,2.11,2.39,0,2.39 c-2.19,0-13.73,0.04-14.43,0.07C48.02,94.57,47.8,92.24,49.99,92.17z" fill="#FDB900"/>
  <path d="M59.42,69.01c0,0-6,15.06-6.34,16.19c-1.41,4.72,3.66,4.58,5,1.9c0.66-1.33,7.11-14.99,7.39-17.46 C65.75,67.18,59.42,69.01,59.42,69.01z" fill="#FFE36A"/>
  <path d="M61.01,86.57c-0.86-0.59-1.9-0.07-2.53,0.92c-0.63,0.99-1.55,2.6-0.14,3.45 c1.27,0.76,2.39-0.77,2.89-1.48C61.72,88.75,62.35,87.48,61.01,86.57z" fill="#FFE36A"/>
  <path d="M71.34,89.8c-2.29-0.49-3.03,1.41-3.52,3.66c-0.49,2.25-2.33,9.53-2.67,11.33 c-0.49,2.53,1.83,2.89,2.82,0.56c0.74-1.74,3.95-9.59,4.36-10.84C72.96,92.62,73.66,90.3,71.34,89.8z" fill="#FFE36A"/>
  <path d="M107.92,46.26c0,0,2.6-34.98-27.31-39.42C53.72,2.85,48.44,28.38,48.44,28.38s-10.16-2.37-17.46,4.15 c-7.25,6.48-6.69,14.15-6.69,14.15S6.41,43.86,4.58,59.21C2.87,73.55,24.01,69.98,24.01,69.98l100.38-7.39c0,0,2.38-7.54-5.21-13.23 C114.67,45.97,107.92,46.26,107.92,46.26z" fill="#E4EAEE"/>
  <radialGradient id="SVGID_1_" cx="65.8112" cy="75.2767" fx="52.6339" fy="75.4035" gradientTransform="matrix(0.0288 -0.9996 1.4975 0.0432 -48.813 137.8088)" gradientUnits="userSpaceOnUse" r="29.4343">
    <stop offset="0.1934" stop-color="#FFE366"/>
    <stop offset="0.3305" stop-color="#EDDD82"/>
    <stop offset="0.5709" stop-color="#D0D4AD"/>
    <stop offset="0.7589" stop-color="#BFCFC7"/>
    <stop offset="0.8699" stop-color="#B8CDD1"/>
  </radialGradient>
  <path d="M53.81,54.19c0.84-0.28,5.63,3.81,19.43,3.94c18.96,0.19,33.32-10.98,33.32-10.98 s0.48,3.4-1.03,5.82c-1.88,3-4.79,3.57-4.79,3.57s5.26,3.66,12.48,3.1c6.51-0.51,11.22-2.72,11.22-2.72s0.63,3.21,0.28,6.34 c-0.7,6.24-4.36,8.78-8.4,9.24c-2.97,0.34-28.34,0.46-38.76,0.56c-9.39,0.09-57.24,1.29-62.13,0.75c-5.07-0.56-8.92-3.61-10.32-7.98 c-1.07-3.31-0.56-5.44-0.56-5.44s9.32,2.47,14.55,1.88c6.57-0.75,10.98-4.88,10.98-4.88s3.94,2.25,12.67,1.5 C50.26,58.23,53.81,54.19,53.81,54.19z" fill="url(#SVGID_1_)"/>
  <path d="M103.9,74.2c-1.02-0.57-4.65,2.82-6.69,4.86c-1.25,1.25-5.23,4.52-5.77,7.67 c-1.34,7.74,7.53,9.5,11.05,5.91c2.66-2.71,2.18-8,2.18-9.78C104.68,80.39,105.17,74.9,103.9,74.2z" fill="#52C0EE"/>
  <path d="M31.02,78.36c-0.97-0.56-4.45,2.72-6.41,4.71c-1.2,1.21-5.01,4.38-5.55,7.46 c-1.32,7.55,7.13,9.32,10.51,5.84c2.55-2.63,2.13-7.8,2.14-9.54C31.72,84.42,32.22,79.06,31.02,78.36z" fill="#52C0EE"/>
  <path d="M47.15,100.74c-1.09-0.41-4.76,2.93-6.8,4.97c-1.25,1.25-4.95,4.45-5.49,7.6 c-1.34,7.74,7.25,9.57,10.77,5.98c2.66-2.71,2.22-8,2.18-9.78C47.71,104.87,47.9,101.02,47.15,100.74z" fill="#52C0EE"/>
  <path d="M97.78,84.22c-1.4-0.73-3.1-0.42-4.18,1.83c-1.08,2.25-0.19,4.04,0.94,4.55 c1.3,0.6,2.91,0.05,3.99-1.78C99.61,86.99,98.95,84.83,97.78,84.22z" fill="#B2E6FE"/>
  <path d="M40.01,110.93c-1.44-0.5-3.02,0.03-3.74,2.34c-0.72,2.31,0.39,3.89,1.54,4.23 c1.33,0.39,2.79-0.36,3.57-2.27C42.15,113.32,41.21,111.35,40.01,110.93z" fill="#B2E6FE"/>
  <path d="M24.07,87.97c-1.52-0.42-3.12,0.23-3.7,2.66c-0.58,2.43,0.66,3.99,1.87,4.25 c1.4,0.31,2.85-0.56,3.53-2.58C26.44,90.3,25.35,88.32,24.07,87.97z" fill="#B2E6FE"/>
</svg>

<svg viewBox="0 0 128 128" xmlns="http://www.w3.org/2000/svg">
  <defs>
    <radialGradient id="SVGID_1_" cx="-73.345809" cy="45.356648" fx="-86.523109" fy="45.483448" gradientTransform="matrix(0.0288 -0.9996 1.4975 0.0432 0 0)" gradientUnits="userSpaceOnUse" r="29.4343">
      <stop offset="0.1934" stop-color="#FFE366"/>
      <stop offset="0.3305" stop-color="#EDDD82"/>
      <stop offset="0.5709" stop-color="#D0D4AD"/>
      <stop offset="0.7589" stop-color="#BFCFC7"/>
      <stop offset="0.8699" stop-color="#B8CDD1"/>
    </radialGradient>
  </defs>
  <path d="M78,67.82 L55.17,71.79 C55.17,71.79 47.57,91.15 47.1,92.46 C46.63,93.77 46.65,95.84 48.72,95.84 C51.35,95.84 64.7,95.77 64.7,95.77 C64.7,95.77 61.46,111.4 61.27,112.8 C61.08,114.2 62.58,115.43 63.9,114.02 C65.22,112.61 83.41,89.23 84.2,88.09 C85.61,86.05 84.25,84.17 82.65,84.08 C81.05,83.99 70.33,84.22 70.33,84.22 L78,67.82 Z" fill="#FECA18"/>
  <path d="M71.92,70.54 C71.92,70.54 66.83,81.8 66.64,82.44 C66.08,84.34 68.54,85.11 69.24,83.57 C69.94,82.02 76,69.49 76,69.49 L71.92,70.54 Z" fill="#FDB900"/>
  <path d="M49.99,92.17 C51.33,92.13 63.09,92.1 64.07,92.03 C65.9,91.89 66.18,94.42 64.07,94.42 C61.88,94.42 50.34,94.46 49.64,94.49 C48.02,94.57 47.8,92.24 49.99,92.17 Z" fill="#FDB900"/>
  <path d="M59.42,69.01 C59.42,69.01 53.42,84.07 53.08,85.2 C51.67,89.92 56.74,89.78 58.08,87.1 C58.74,85.77 65.19,72.11 65.47,69.64 C65.75,67.18 59.42,69.01 59.42,69.01 Z" fill="#FFE36A"/>
  <path d="M61.01,86.57 C60.15,85.98 59.11,86.5 58.48,87.49 C57.85,88.48 56.93,90.09 58.34,90.94 C59.61,91.7 60.73,90.17 61.23,89.46 C61.72,88.75 62.35,87.48 61.01,86.57 Z" fill="#FFE36A"/>
  <path d="M71.34,89.8 C69.05,89.31 68.31,91.21 67.82,93.46 C67.33,95.71 65.49,102.99 65.15,104.79 C64.66,107.32 66.98,107.68 67.97,105.35 C68.71,103.61 71.92,95.76 72.33,94.51 C72.96,92.62 73.66,90.3 71.34,89.8 Z" fill="#FFE36A"/>
  <path d="M107.92,46.26 C107.92,46.26 110.52,11.28 80.61,6.84 C53.72,2.85 48.44,28.38 48.44,28.38 C48.44,28.38 38.28,26.01 30.98,32.53 C23.73,39.01 24.29,46.68 24.29,46.68 C24.29,46.68 6.41,43.86 4.58,59.21 C2.87,73.55 24.01,69.98 24.01,69.98 L124.39,62.59 C124.39,62.59 126.77,55.05 119.18,49.36 C114.67,45.97 107.92,46.26 107.92,46.26 Z" fill="#E4EAEE"/>
  <path d="M53.81,54.19 C54.65,53.91 59.44,58 73.24,58.13 C92.2,58.32 106.56,47.15 106.56,47.15 C106.56,47.15 107.04,50.55 105.53,52.97 C103.65,55.97 100.74,56.54 100.74,56.54 C100.74,56.54 106,60.2 113.22,59.64 C119.73,59.13 124.44,56.92 124.44,56.92 C124.44,56.92 125.07,60.13 124.72,63.26 C124.02,69.5 120.36,72.04 116.32,72.5 C113.35,72.84 87.98,72.96 77.56,73.06 C68.17,73.15 20.32,74.35 15.43,73.81 C10.36,73.25 6.51,70.2 5.11,65.83 C4.04,62.52 4.55,60.39 4.55,60.39 C4.55,60.39 13.87,62.86 19.1,62.27 C25.67,61.52 30.08,57.39 30.08,57.39 C30.08,57.39 34.02,59.64 42.75,58.89 C50.26,58.23 53.81,54.19 53.81,54.19 Z" fill="url(#SVGID_1_)"/>
  <path d="M103.9,74.2 C102.88,73.63 99.25,77.02 97.21,79.06 C95.96,80.31 91.98,83.58 91.44,86.73 C90.1,94.47 98.97,96.23 102.49,92.64 C105.15,89.93 104.67,84.64 104.67,82.86 C104.68,80.39 105.17,74.9 103.9,74.2 Z" fill="#52C0EE"/>
  <path d="M31.02,78.36 C30.05,77.8 26.57,81.08 24.61,83.07 C23.41,84.28 19.6,87.45 19.06,90.53 C17.74,98.08 26.19,99.85 29.57,96.37 C32.12,93.74 31.7,88.57 31.71,86.83 C31.72,84.42 32.22,79.06 31.02,78.36 Z" fill="#52C0EE"/>
  <path d="M47.15,100.74 C46.06,100.33 42.39,103.67 40.35,105.71 C39.1,106.96 35.4,110.16 34.86,113.31 C33.52,121.05 42.11,122.88 45.63,119.29 C48.29,116.58 47.85,111.29 47.81,109.51 C47.71,104.87 47.9,101.02 47.15,100.74 Z" fill="#52C0EE"/>
  <path d="M97.78,84.22 C96.38,83.49 94.68,83.8 93.6,86.05 C92.52,88.3 93.41,90.09 94.54,90.6 C95.84,91.2 97.45,90.65 98.53,88.82 C99.61,86.99 98.95,84.83 97.78,84.22 Z" fill="#B2E6FE"/>
  <path d="M40.01,110.93 C38.57,110.43 36.99,110.96 36.27,113.27 C35.55,115.58 36.66,117.16 37.81,117.5 C39.14,117.89 40.6,117.14 41.38,115.23 C42.15,113.32 41.21,111.35 40.01,110.93 Z" fill="#B2E6FE"/>
  <path d="M24.07,87.97 C22.55,87.55 20.95,88.2 20.37,90.63 C19.79,93.06 21.03,94.62 22.24,94.88 C23.64,95.19 25.09,94.32 25.77,92.3 C26.44,90.3 25.35,88.32 24.07,87.97 Z" fill="#B2E6FE"/>
</svg>
